**kern	**silbe	**kern	**silbe	**kern	**silbe	**harmony	**phrase	**leadinstrument	**rhyme	**timestamp	**harte
*ICvox	*	*ICvox	*	*ICvox	*	*M4/4	*	*	*	*	*M4/4
*VRlead	*	*VRharmonize	*	*VRharmonize	*	*	*	*	*	*	*
*Hstimme	*	*Nstimme	*	*Nstimme	*	*	*	*	*	*	*
*c#:	*	*c#:	*	*c#:	*	*c#:	*c#:	*c#:	*	*c#:	*c#:
*M4/4	*	*M4/4	*	*M4/4	*	*	*	*	*	*	*
*clefF4	*	*clefF4	*	*clefGv2	*	*	*	*	*	*	*
r;	.	r;	.	r;	.	1r;	.	r	.	0	N.C.
=1	=1	=1	=1	=1	=1	=1	=1	=1	=1	=1	=1
*>Letter>C	*>Letter>C	*>Letter>C	*>Letter>C	*>Letter>C	*>Letter>C	*>Letter>C	*>Letter>C	*>Letter>C	*>Letter>C	*>Letter>C	*>Letter>C
*>Label>Intro	*>Label>Intro	*>Label>Intro	*>Label>Intro	*>Label>Intro	*>Label>Intro	*>Label>Intro	*>Label>Intro	*>Label>Intro	*>Label>Intro	*>Label>Intro	*>Label>Intro
1r	.	1r	.	1r	.	1N	newline	drums	.	0.418	N.C.
=2	=2	=2	=2	=2	=2	=2	=2	=2	=2	=2	=2
1r	.	1r	.	1r	.	1N	.	drums	.	1.869	N.C.
=3	=3	=3	=3	=3	=3	=3	=3	=3	=3	=3	=3
1r	.	1r	.	1r	.	1C#m	newline	synthesizer	.	3.32	C#:5(b13)
=4	=4	=4	=4	=4	=4	=4	=4	=4	=4	=4	=4
1r	.	2r	.	1r	.	1C#m	.	synthesizer	.	5.267	C#:5(b13)
.	.	4BB 4B	Who's	.	.	.	.	.	.	.	.
.	.	8AA 8A	wa-	.	.	.	.	.	.	.	.
.	.	8GG# 8G#	-tching?	.	.	.	.	.	.	.	.
=5	=5	=5	=5	=5	=5	=5	=5	=5	=5	=5	=5
1r	.	1r	.	1r	.	1C#m	.	synthesizer	.	7.213	C#:5(b13)
=6	=6	=6	=6	=6	=6	=6	=6	=6	=6	=6	=6
1r	.	4r	.	1r	.	1C#m	.	synthesizer	.	9.16	C#:5(b13)
.	.	8GG# 8G#	Tell	.	.	.	.	.	.	.	.
.	.	8AA 8A	me,	.	.	.	.	.	.	.	.
.	.	4BB 4B	who's	.	.	.	.	.	.	.	.
.	.	8AA 8A	wa-	.	.	.	.	.	.	.	.
.	.	8GG# 8G#	-tching?	.	.	.	.	.	.	.	.
=7	=7	=7	=7	=7	=7	=7	=7	=7	=7	=7	=7
1r	.	2r	.	1r	.	1C#m	newline	synthesizer	.	11.106	C#:5(b13)
.	.	8r	.	.	.	.	.	.	.	.	.
.	.	8c#	Who's	.	.	.	.	.	.	.	.
.	.	8B	wa-	.	.	.	.	.	.	.	.
.	.	8A	-tching	.	.	.	.	.	.	.	.
=8	=8	=8	=8	=8	=8	=8	=8	=8	=8	=8	=8
1r	.	8A	me?	1r	.	1C#m	.	synthesizer	.	13.046	C#:5(b13)
.	.	8r	.	.	.	.	.	.	.	.	.
.	.	4r	.	.	.	.	.	.	.	.	.
.	.	2r	.	.	.	.	.	.	.	.	.
=9	=9	=9	=9	=9	=9	=9	=9	=9	=9	=9	=9
1r	.	1r	.	1r	.	1C#m	.	synthesizer	.	14.986	C#:5(b13)
=10	=10	=10	=10	=10	=10	=10	=10	=10	=10	=10	=10
1r	.	1r	.	1r	.	1C#m	.	synthesizer	.	16.926	C#:5(b13)
=11	=11	=11	=11	=11	=11	=11	=11	=11	=11	=11	=11
1r	.	1r	.	1r	.	1C#m	newline	synthesizer	.	18.866	C#:min
=12	=12	=12	=12	=12	=12	=12	=12	=12	=12	=12	=12
1r	.	1r	.	1r	.	2AMM	.	synthesizer	.	20.789	A:maj7
.	.	.	.	.	.	2BM	.	synthesizer	.	21.751	B:maj6
=13	=13	=13	=13	=13	=13	=13	=13	=13	=13	=13	=13
1r	.	1r	.	1r	.	1C#m	.	synthesizer	.	22.713	C#:min
=14	=14	=14	=14	=14	=14	=14	=14	=14	=14	=14	=14
1r	.	1r	.	1r	.	2AM	.	synthesizer	.	24.637	A:maj
.	.	.	.	.	.	2BMm	.	synthesizer	.	25.598	B:7
=15	=15	=15	=15	=15	=15	=15	=15	=15	=15	=15	=15
1r	.	1r	.	1r	.	1C#m	newline	synthesizer	.	26.56	C#:min
=16	=16	=16	=16	=16	=16	=16	=16	=16	=16	=16	=16
1r	.	1r	.	1r	.	2AMM	.	synthesizer	.	28.497	A:maj7
.	.	.	.	.	.	2BM	.	synthesizer	.	29.466	B:maj6
=17	=17	=17	=17	=17	=17	=17	=17	=17	=17	=17	=17
1r	.	1r	.	1r	.	1C#m	.	synthesizer	.	30.434	C#:min
=18	=18	=18	=18	=18	=18	=18	=18	=18	=18	=18	=18
1r	.	1r	.	1r	.	2AM	.	synthesizer	.	32.371	A:maj
.	.	.	.	.	.	2BMm	.	synthesizer	.	33.34	B:7
=19	=19	=19	=19	=19	=19	=19	=19	=19	=19	=19	=19
*>Letter>A	*>Letter>A	*>Letter>A	*>Letter>A	*>Letter>A	*>Letter>A	*>Letter>A	*>Letter>A	*>Letter>A	*>Letter>A	*>Letter>A	*>Letter>A
*>Label>Verse	*>Label>Verse	*>Label>Verse	*>Label>Verse	*>Label>Verse	*>Label>Verse	*>Label>Verse	*>Label>Verse	*>Label>Verse	*>Label>Verse	*>Label>Verse	*>Label>Verse
8r	.	1r	.	1r	.	1C#m	newline	voice	.	34.308	C#:min
8f#	I'm	.	.	.	.	.	.	.	.	.	.
8f#	just	.	.	.	.	.	.	.	.	.	.
16e	an	.	.	.	.	.	.	.	.	.	.
[16f#	a-	.	.	.	.	.	.	.	.	.	.
16f#]	_	.	.	.	.	.	.	.	.	.	.
8.f#	-verage	.	.	.	.	.	.	.	.	.	.
4c#	man,	.	.	.	.	.	.	.	.	.	.
=20	=20	=20	=20	=20	=20	=20	=20	=20	=20	=20	=20
4r	.	1r	.	1r	.	1AM	.	voice	.	36.234	A:maj
8c#	with	.	.	.	.	.	.	.	.	.	.
16B	an	.	.	.	.	.	.	.	.	.	.
[16F#	a	.	.	.	.	.	.	.	.	.	.
16F#]	_	.	.	.	.	.	.	.	.	.	.
8.F#	verage	.	.	.	.	.	.	.	.	.	.
4E	life.	.	.	.	.	.	.	.	A	.	.
=21	=21	=21	=21	=21	=21	=21	=21	=21	=21	=21	=21
8r	.	1r	.	1r	.	1C#m	.	voice	.	38.159	C#:min
8B	I	.	.	.	.	.	.	.	.	.	.
8B	work	.	.	.	.	.	.	.	.	.	.
8B	from	.	.	.	.	.	.	.	.	.	.
8f#	nine	.	.	.	.	.	.	.	.	.	.
16f#	to	.	.	.	.	.	.	.	.	.	.
[16B	five,	.	.	.	.	.	.	.	A	.	.
4B]	_	.	.	.	.	.	.	.	.	.	.
=22	=22	=22	=22	=22	=22	=22	=22	=22	=22	=22	=22
8r	.	1r	.	1r	.	2AM	.	voice	.	40.084	A:maj
8d#	hey,	.	.	.	.	.	.	.	.	.	.
8c#	hell,	.	.	.	.	.	.	.	.	.	.
8d#	I	.	.	.	.	.	.	.	.	.	.
8B	pay	.	.	.	.	2BM	.	voice	.	41.047	B:maj
16A	the	.	.	.	.	.	.	.	.	.	.
[16A	price	.	.	.	.	.	.	.	A	.	.
8A]	_	.	.	.	.	.	.	.	.	.	.
8r	.	.	.	.	.	.	.	.	.	.	.
=23	=23	=23	=23	=23	=23	=23	=23	=23	=23	=23	=23
8r	.	1r	.	1r	.	1C#m	newline	voice	.	42.009	C#:min
16f#	All	.	.	.	.	.	.	.	.	.	.
16f#	I	.	.	.	.	.	.	.	.	.	.
16f#	want	.	.	.	.	.	.	.	.	.	.
16f#	is	.	.	.	.	.	.	.	.	.	.
16f#	to	.	.	.	.	.	.	.	.	.	.
16f#	be	.	.	.	.	.	.	.	.	.	.
8f#	left	.	.	.	.	.	.	.	.	.	.
16f#	a	.	.	.	.	.	.	.	.	.	.
16g	lone!	.	.	.	.	.	.	.	B	.	.
4c#	_	.	.	.	.	.	.	.	.	.	.
=24	=24	=24	=24	=24	=24	=24	=24	=24	=24	=24	=24
4r	.	1r	.	1r	.	1AM	.	voice	.	43.954	A:maj
8c#	In	.	.	.	.	.	.	.	.	.	.
8B	my	.	.	.	.	.	.	.	.	.	.
8G#	a-	.	.	.	.	.	.	.	.	.	.
8F#	-verage	.	.	.	.	.	.	.	.	.	.
4F#	home.	.	.	.	.	.	.	.	B	.	.
=25	=25	=25	=25	=25	=25	=25	=25	=25	=25	=25	=25
8r	.	1r	.	1r	.	1C#m	.	voice	.	45.899	C#:min
8e	But	.	.	.	.	.	.	.	.	.	.
8f#	why	.	.	.	.	.	.	.	.	.	.
16e	do	.	.	.	.	.	.	.	.	.	.
16e	I	.	.	.	.	.	.	.	.	.	.
8a	al-	.	.	.	.	.	.	.	.	.	.
8a	-ways	.	.	.	.	.	.	.	.	.	.
4c#	feel...	.	.	.	.	.	.	.	.	.	.
=26	=26	=26	=26	=26	=26	=26	=26	=26	=26	=26	=26
8r	.	1r	.	1r	.	2AM	.	voice	.	47.844	A:maj
16e	like	.	.	.	.	.	.	.	.	.	.
16e	I'm	.	.	.	.	.	.	.	.	.	.
8e	in	.	.	.	.	.	.	.	.	.	.
8e	the	.	.	.	.	.	.	.	.	.	.
8a	Twi-	.	.	.	.	2BM	.	voice	.	48.816	B:maj
8g#	-light	.	.	.	.	.	.	.	.	.	.
8f#	Zone	.	.	.	.	.	.	.	B	.	.
8e	and...	.	.	.	.	.	.	.	.	.	.
=27	=27	=27	=27	=27	=27	=27	=27	=27	=27	=27	=27
*>Letter>B	*>Letter>B	*>Letter>B	*>Letter>B	*>Letter>B	*>Letter>B	*>Letter>B	*>Letter>B	*>Letter>B	*>Letter>B	*>Letter>B	*>Letter>B
*>Label>Chorus	*>Label>Chorus	*>Label>Chorus	*>Label>Chorus	*>Label>Chorus	*>Label>Chorus	*>Label>Chorus	*>Label>Chorus	*>Label>Chorus	*>Label>Chorus	*>Label>Chorus	*>Label>Chorus
8r	.	1r	.	1r	.	1C#m	newline	voice	.	49.789	C#:min
8c#	I	.	.	.	.	.	.	.	.	.	.
8e	al-	.	.	.	.	.	.	.	.	.	.
8e	-ways	.	.	.	.	.	.	.	.	.	.
4f#	feel	.	.	.	.	.	.	.	.	.	.
4c#	like	.	.	.	.	.	.	.	.	.	.
=28	=28	=28	=28	=28	=28	=28	=28	=28	=28	=28	=28
8r	.	1r	.	1r	.	2AM	.	voice	.	51.724	A:maj
8c#	some-	.	.	.	.	.	.	.	.	.	.
8e	-bo-	.	.	.	.	.	.	.	.	.	.
8e	-dy's	.	.	.	.	.	.	.	.	.	.
4b	wa-	.	.	.	.	2BM	.	voice	.	52.692	B:maj
8a	-tching	.	.	.	.	.	.	.	.	.	.
8a	me!	.	.	.	.	.	.	.	C	.	.
=29	=29	=29	=29	=29	=29	=29	=29	=29	=29	=29	=29
4.g#	_	1r	.	1r	.	1C#m	.	voice	.	53.66	C#:min
8r	.	.	.	.	.	.	.	.	.	.	.
8r	.	.	.	.	.	.	.	.	.	.	.
16g	And	.	.	.	.	.	.	.	.	.	.
16f#	I	.	.	.	.	.	.	.	.	.	.
8f#	have	.	.	.	.	.	.	.	.	.	.
8f#	no	.	.	.	.	.	.	.	.	.	.
=30	=30	=30	=30	=30	=30	=30	=30	=30	=30	=30	=30
8f#	pri-	1r	.	1r	.	2AM	.	voice	.	55.595	A:maj
8c#	-va-	.	.	.	.	.	.	.	.	.	.
4c#	-cy.	.	.	.	.	.	.	.	C	.	.
8r	.	.	.	.	.	2BM	.	voice	.	56.563	B:maj
8c#	Oh!	.	.	.	.	.	.	.	.	.	.
8e	_	.	.	.	.	.	.	.	.	.	.
8c#	_	.	.	.	.	.	.	.	.	.	.
=31	=31	=31	=31	=31	=31	=31	=31	=31	=31	=31	=31
8r	.	1r	.	1r	.	1C#m	newline	voice	.	57.531	C#:min
8c#	I	.	.	.	.	.	.	.	.	.	.
8e	al-	.	.	.	.	.	.	.	.	.	.
8e	-ways	.	.	.	.	.	.	.	.	.	.
4f#	feel	.	.	.	.	.	.	.	.	.	.
4c#	like,	.	.	.	.	.	.	.	.	.	.
=32	=32	=32	=32	=32	=32	=32	=32	=32	=32	=32	=32
8r	.	1r	.	1r	.	2AM	.	voice	.	59.452	A:maj
8c#	some-	.	.	.	.	.	.	.	.	.	.
8e	-bo-	.	.	.	.	.	.	.	.	.	.
8e	-dy's	.	.	.	.	.	.	.	.	.	.
4b	wa-	.	.	.	.	2BM	.	voice	.	60.412	B:maj
8a	-tching	.	.	.	.	.	.	.	.	.	.
8a	me!	.	.	.	.	.	.	.	C	.	.
=33	=33	=33	=33	=33	=33	=33	=33	=33	=33	=33	=33
4.g#	_	1r	.	1r	.	1C#m	.	voice	.	61.373	C#:min
8r	.	.	.	.	.	.	.	.	.	.	.
8r	.	.	.	.	.	.	.	.	.	.	.
16g	Tell	.	.	.	.	.	.	.	.	.	.
16f#	me,	.	.	.	.	.	.	.	.	.	.
8f#	is	.	.	.	.	.	.	.	.	.	.
8f#	it	.	.	.	.	.	.	.	.	.	.
=34	=34	=34	=34	=34	=34	=34	=34	=34	=34	=34	=34
8f#	just	1r	.	1r	.	2AM	.	voice	.	63.294	A:maj
8c#	a	.	.	.	.	.	.	.	.	.	.
4c#	dream?	.	.	.	.	.	.	.	C	.	.
2r	.	.	.	.	.	2BM	.	voice	.	64.254	B:maj
=35	=35	=35	=35	=35	=35	=35	=35	=35	=35	=35	=35
*>Letter>A	*>Letter>A	*>Letter>A	*>Letter>A	*>Letter>A	*>Letter>A	*>Letter>A	*>Letter>A	*>Letter>A	*>Letter>A	*>Letter>A	*>Letter>A
*>Label>Verse	*>Label>Verse	*>Label>Verse	*>Label>Verse	*>Label>Verse	*>Label>Verse	*>Label>Verse	*>Label>Verse	*>Label>Verse	*>Label>Verse	*>Label>Verse	*>Label>Verse
8r	.	1r	.	1r	.	1C#m	newline	voice	.	65.215	C#:min
16e	When	.	.	.	.	.	.	.	.	.	.
[16a	I	.	.	.	.	.	.	.	.	.	.
8a]	_	.	.	.	.	.	.	.	.	.	.
8d#	come	.	.	.	.	.	.	.	.	.	.
8c#	home	.	.	.	.	.	.	.	.	.	.
8B	at	.	.	.	.	.	.	.	.	.	.
[4B	night	.	.	.	.	.	.	.	A	.	.
=36	=36	=36	=36	=36	=36	=36	=36	=36	=36	=36	=36
4B]	.	1r	.	1r	.	1AM	.	voice	.	67.152	A:maj
4r	.	.	.	.	.	.	.	.	.	.	.
2r	.	.	.	.	.	.	.	.	.	.	.
=37	=37	=37	=37	=37	=37	=37	=37	=37	=37	=37	=37
8r	.	1r	.	1r	.	1C#m	.	voice	.	69.089	C#:min
8B	I'd	.	.	.	.	.	.	.	.	.	.
8B	locked	.	.	.	.	.	.	.	.	.	.
16B	the	.	.	.	.	.	.	.	.	.	.
[16B	door	.	.	.	.	.	.	.	.	.	.
8B]	_	.	.	.	.	.	.	.	.	.	.
[8A	real	.	.	.	.	.	.	.	.	.	.
8A]	_	.	.	.	.	.	.	.	.	.	.
[8E	tight	.	.	.	.	.	.	.	A	.	.
=38	=38	=38	=38	=38	=38	=38	=38	=38	=38	=38	=38
4E]	.	1r	.	1r	.	2AM	.	voice	.	71.027	A:maj
4r	.	.	.	.	.	.	.	.	.	.	.
2r	.	.	.	.	.	2BM	.	voice	.	71.995	B:maj
=39	=39	=39	=39	=39	=39	=39	=39	=39	=39	=39	=39
8g#	Peo-	1r	.	1r	.	1C#m	newline	voice	.	72.964	C#:min
8g#	-ple	.	.	.	.	.	.	.	.	.	.
8B	call	.	.	.	.	.	.	.	.	.	.
8B	me	.	.	.	.	.	.	.	.	.	.
8f#	on	.	.	.	.	.	.	.	.	.	.
8f#	my	.	.	.	.	.	.	.	.	.	.
8B	phone,	.	.	.	.	.	.	.	.	.	.
8B	I'm	.	.	.	.	.	.	.	.	.	.
=40	=40	=40	=40	=40	=40	=40	=40	=40	=40	=40	=40
8e	trying	1r	.	1r	.	2AM	.	voice	.	74.898	A:maj
8e	to	.	.	.	.	.	.	.	.	.	.
8F#	a-	.	.	.	.	.	.	.	.	.	.
[8B	-void	.	.	.	.	.	.	.	D	.	.
4B]	.	.	.	.	.	2BM	.	voice	.	75.866	B:maj
16r	.	.	.	.	.	.	.	.	.	.	.
16f#	Well,	.	.	.	.	.	.	.	.	.	.
16f#	can	.	.	.	.	.	.	.	.	.	.
16f#	the	.	.	.	.	.	.	.	.	.	.
=41	=41	=41	=41	=41	=41	=41	=41	=41	=41	=41	=41
16a	peo-	1r	.	1r	.	1C#m	.	voice	.	76.833	C#:min
16a	-ple	.	.	.	.	.	.	.	.	.	.
8a	on	.	.	.	.	.	.	.	.	.	.
8f#	T-	.	.	.	.	.	.	.	.	.	.
8f#	-V	.	.	.	.	.	.	.	.	.	.
8B	see	.	.	.	.	.	.	.	.	.	.
8B	me	.	.	.	.	.	.	.	.	.	.
16A	or	.	.	.	.	.	.	.	.	.	.
16A	am	.	.	.	.	.	.	.	.	.	.
[8c#	I	.	.	.	.	.	.	.	.	.	.
=42	=42	=42	=42	=42	=42	=42	=42	=42	=42	=42	=42
8c#]	_	1r	.	1r	.	2AM	.	voice	.	78.767	A:maj
8c#	just	.	.	.	.	.	.	.	.	.	.
16e	pa-	.	.	.	.	.	.	.	.	.	.
16B	-ra-	.	.	.	.	.	.	.	.	.	.
[8A	-noid?	.	.	.	.	.	.	.	D	.	.
4A]	_	.	.	.	.	2BM	.	voice	.	79.734	B:maj
4r	.	.	.	.	.	.	.	.	.	.	.
=43	=43	=43	=43	=43	=43	=43	=43	=43	=43	=43	=43
*>Letter>A	*>Letter>A	*>Letter>A	*>Letter>A	*>Letter>A	*>Letter>A	*>Letter>A	*>Letter>A	*>Letter>A	*>Letter>A	*>Letter>A	*>Letter>A
*>Label>Verse	*>Label>Verse	*>Label>Verse	*>Label>Verse	*>Label>Verse	*>Label>Verse	*>Label>Verse	*>Label>Verse	*>Label>Verse	*>Label>Verse	*>Label>Verse	*>Label>Verse
8r	.	1r	.	1r	.	1C#m	newline	voice	.	80.702	C#:min
16g#	When	.	.	.	.	.	.	.	.	.	.
16g#	I'm	.	.	.	.	.	.	.	.	.	.
16g#	in	.	.	.	.	.	.	.	.	.	.
8g#	the	.	.	.	.	.	.	.	.	.	.
[16g#	sho	.	.	.	.	.	.	.	.	.	.
16g#]	_	.	.	.	.	.	.	.	.	.	.
8.c#	wer,	.	.	.	.	.	.	.	.	.	.
8r	.	.	.	.	.	.	.	.	.	.	.
16g#	I'm	.	.	.	.	.	.	.	.	.	.
16g#	a-	.	.	.	.	.	.	.	.	.	.
=44	=44	=44	=44	=44	=44	=44	=44	=44	=44	=44	=44
8.g#	-fraid	1r	.	1r	.	2AM	.	voice	.	82.632	A:maj
16e	to	.	.	.	.	.	.	.	.	.	.
8d#	wash	.	.	.	.	.	.	.	.	.	.
8c#	my	.	.	.	.	.	.	.	.	.	.
4c#	hair,	.	.	.	.	2BM	.	voice	E	83.597	B:maj
4r	.	.	.	.	.	.	.	.	.	.	.
=45	=45	=45	=45	=45	=45	=45	=45	=45	=45	=45	=45
16r	.	1r	.	1r	.	1C#m	.	voice	.	84.562	C#:min
16e	'cause	.	.	.	.	.	.	.	.	.	.
16e	I	.	.	.	.	.	.	.	.	.	.
16e	might	.	.	.	.	.	.	.	.	.	.
16e	o-	.	.	.	.	.	.	.	.	.	.
16e	-pen	.	.	.	.	.	.	.	.	.	.
16e	my	.	.	.	.	.	.	.	.	.	.
[16f#	eyes,	.	.	.	.	.	.	.	.	.	.
8f#]	_	.	.	.	.	.	.	.	.	.	.
8e	and	.	.	.	.	.	.	.	.	.	.
8f#	find	.	.	.	.	.	.	.	.	.	.
8g#	some	.	.	.	.	.	.	.	.	.	.
=46	=46	=46	=46	=46	=46	=46	=46	=46	=46	=46	=46
4g#	one	1r	.	1r	.	2AM	.	voice	.	86.493	A:maj
8a	stan-	.	.	.	.	.	.	.	.	.	.
8e	-ding	.	.	.	.	.	.	.	.	.	.
4c#	there!	.	.	.	.	2BM	.	voice	E	87.458	B:maj
4r	.	.	.	.	.	.	.	.	.	.	.
=47	=47	=47	=47	=47	=47	=47	=47	=47	=47	=47	=47
8r	.	1r	.	1r	.	1C#m	newline	voice	.	88.423	C#:min
16g#	Peo-	.	.	.	.	.	.	.	.	.	.
16g#	-ple	.	.	.	.	.	.	.	.	.	.
16g#	say	.	.	.	.	.	.	.	.	.	.
8g#	I'm	.	.	.	.	.	.	.	.	.	.
[16g#	cra	.	.	.	.	.	.	.	.	.	.
16g#]	_	.	.	.	.	.	.	.	.	.	.
8.e	zy,	.	.	.	.	.	.	.	.	.	.
4r	.	.	.	.	.	.	.	.	.	.	.
=48	=48	=48	=48	=48	=48	=48	=48	=48	=48	=48	=48
8r	.	1r	.	1r	.	2AM	.	voice	.	90.366	A:maj
16g#	just	.	.	.	.	.	.	.	.	.	.
16g#	a	.	.	.	.	.	.	.	.	.	.
16g#	lit-	.	.	.	.	.	.	.	.	.	.
8e	-tle	.	.	.	.	.	.	.	.	.	.
[16e	touched	.	.	.	.	.	.	.	F	.	.
8e]	_	.	.	.	.	2BM	.	voice	.	91.338	B:maj
8r	.	.	.	.	.	.	.	.	.	.	.
8r	.	.	.	.	.	.	.	.	.	.	.
8f#	but	.	.	.	.	.	.	.	.	.	.
=49	=49	=49	=49	=49	=49	=49	=49	=49	=49	=49	=49
8g#	may-	1r	.	1r	.	1C#m	.	voice	.	92.309	C#:min
8ff#	-be	.	.	.	.	.	.	.	.	.	.
8f#	sho-	.	.	.	.	.	.	.	.	.	.
16f#	-wers	.	.	.	.	.	.	.	.	.	.
16e	re-	.	.	.	.	.	.	.	.	.	.
8c#	-mind	.	.	.	.	.	.	.	.	.	.
8B	me	.	.	.	.	.	.	.	.	.	.
8r	.	.	.	.	.	.	.	.	.	.	.
8e	of	.	.	.	.	.	.	.	.	.	.
=50	=50	=50	=50	=50	=50	=50	=50	=50	=50	=50	=50
8d#	Psy-	1r	.	1r	.	2AM	.	voice	.	94.252	A:maj
8B	-cho	.	.	.	.	.	.	.	.	.	.
8G#	too	.	.	.	.	.	.	.	.	.	.
8F#	much,	.	.	.	.	.	.	.	F	.	.
8r	.	.	.	.	.	2BM	.	voice	.	95.223	B:maj
8gg#	that's	.	.	.	.	.	.	.	.	.	.
4B	why...	.	.	.	.	.	.	.	.	.	.
=51	=51	=51	=51	=51	=51	=51	=51	=51	=51	=51	=51
*>Letter>B	*>Letter>B	*>Letter>B	*>Letter>B	*>Letter>B	*>Letter>B	*>Letter>B	*>Letter>B	*>Letter>B	*>Letter>B	*>Letter>B	*>Letter>B
*>Label>Chorus	*>Label>Chorus	*>Label>Chorus	*>Label>Chorus	*>Label>Chorus	*>Label>Chorus	*>Label>Chorus	*>Label>Chorus	*>Label>Chorus	*>Label>Chorus	*>Label>Chorus	*>Label>Chorus
8r	.	1r	.	1r	.	1C#m	newline	voice	.	96.195	C#:min
8c#	I	.	.	.	.	.	.	.	.	.	.
8e	al-	.	.	.	.	.	.	.	.	.	.
8e	-ways	.	.	.	.	.	.	.	.	.	.
4f#	feel	.	.	.	.	.	.	.	.	.	.
4c#	like	.	.	.	.	.	.	.	.	.	.
=52	=52	=52	=52	=52	=52	=52	=52	=52	=52	=52	=52
8r	.	1r	.	1r	.	2AM	.	voice	.	98.122	A:maj
8c#	some-	.	.	.	.	.	.	.	.	.	.
8e	-bo-	.	.	.	.	.	.	.	.	.	.
8e	-dy's	.	.	.	.	.	.	.	.	.	.
4b	wa-	.	.	.	.	2BM	.	voice	.	99.085	B:maj
8a	-tching	.	.	.	.	.	.	.	.	.	.
8a	me!	.	.	.	.	.	.	.	C	.	.
=53	=53	=53	=53	=53	=53	=53	=53	=53	=53	=53	=53
4.g#	_	1r	.	1r	.	1C#m	.	voice	.	100.049	C#:min
8r	.	.	.	.	.	.	.	.	.	.	.
8r	.	.	.	.	.	.	.	.	.	.	.
16g	And	.	.	.	.	.	.	.	.	.	.
16f#	I	.	.	.	.	.	.	.	.	.	.
8f#	have	.	.	.	.	.	.	.	.	.	.
8f#	no	.	.	.	.	.	.	.	.	.	.
=54	=54	=54	=54	=54	=54	=54	=54	=54	=54	=54	=54
8f#	pri-	1r	.	1r	.	2AM	.	voice	.	101.976	A:maj
8c#	-va-	.	.	.	.	.	.	.	.	.	.
4c#	-cy,	.	.	.	.	.	.	.	c	.	.
8r	.	.	.	.	.	2BM	.	voice	.	102.94	B:maj
8c#	whoa-	.	.	.	.	.	.	.	.	.	.
8e	-oh-	.	.	.	.	.	.	.	.	.	.
8c#	-oh!	.	.	.	.	.	.	.	.	.	.
=55	=55	=55	=55	=55	=55	=55	=55	=55	=55	=55	=55
8r	.	1r	.	1r	.	1C#m	newline	voice	.	103.904	C#:min
8c#	I	.	.	.	.	.	.	.	.	.	.
8e	al-	.	.	.	.	.	.	.	.	.	.
8e	-ways	.	.	.	.	.	.	.	.	.	.
4f#	feel	.	.	.	.	.	.	.	.	.	.
4c#	like,	.	.	.	.	.	.	.	.	.	.
=56	=56	=56	=56	=56	=56	=56	=56	=56	=56	=56	=56
8r	.	1r	.	1r	.	2AM	.	voice	.	105.843	A:maj
8c#	some-	.	.	.	.	.	.	.	.	.	.
8e	-bo-	.	.	.	.	.	.	.	.	.	.
8e	-dy's	.	.	.	.	.	.	.	.	.	.
4b	wa-	.	.	.	.	2BM	.	voice	.	106.813	B:maj
8a	-tching	.	.	.	.	.	.	.	.	.	.
8a	me!	.	.	.	.	.	.	.	C	.	.
=57	=57	=57	=57	=57	=57	=57	=57	=57	=57	=57	=57
4.g#	_	1r	.	1r	.	1C#m	.	voice	.	107.783	C#:min
8r	.	.	.	.	.	.	.	.	.	.	.
8r	.	.	.	.	.	.	.	.	.	.	.
8g	Who's	.	.	.	.	.	.	.	.	.	.
8f#	pla-	.	.	.	.	.	.	.	.	.	.
8f#	-ying	.	.	.	.	.	.	.	.	.	.
=58	=58	=58	=58	=58	=58	=58	=58	=58	=58	=58	=58
8f#	tricks	1r	.	1r	.	2AM	.	voice	.	109.722	A:maj
8c#	on	.	.	.	.	.	.	.	.	.	.
4c#	me?	.	.	.	.	.	.	.	C	.	.
2r	.	.	.	.	.	2BM	.	voice	.	110.692	B:maj
=59	=59	=59	=59	=59	=59	=59	=59	=59	=59	=59	=59
*>Letter>D	*>Letter>D	*>Letter>D	*>Letter>D	*>Letter>D	*>Letter>D	*>Letter>D	*>Letter>D	*>Letter>D	*>Letter>D	*>Letter>D	*>Letter>D
*>Label>Solo	*>Label>Solo	*>Label>Solo	*>Label>Solo	*>Label>Solo	*>Label>Solo	*>Label>Solo	*>Label>Solo	*>Label>Solo	*>Label>Solo	*>Label>Solo	*>Label>Solo
1r	.	1r	.	1r	.	1C#m	newline	synthesizer	.	111.662	C#:min
=60	=60	=60	=60	=60	=60	=60	=60	=60	=60	=60	=60
1r	.	1r	.	1r	.	2AM	.	synthesizer	.	113.587	A:maj
.	.	.	.	.	.	2BM	.	synthesizer	.	114.55	B:maj
=61	=61	=61	=61	=61	=61	=61	=61	=61	=61	=61	=61
1r	.	1r	.	1r	.	1C#m	.	synthesizer	.	115.513	C#:min
=62	=62	=62	=62	=62	=62	=62	=62	=62	=62	=62	=62
1r	.	1r	.	1r	.	2AM	.	synthesizer	.	117.438	A:maj
.	.	.	.	.	.	2BM	.	synthesizer	.	118.401	B:maj
=63	=63	=63	=63	=63	=63	=63	=63	=63	=63	=63	=63
1r	.	1r	.	1r	.	1C#m	newline	synthesizer	.	119.364	C#:min
=64	=64	=64	=64	=64	=64	=64	=64	=64	=64	=64	=64
1r	.	1r	.	1r	.	2AM	.	synthesizer	.	121.301	A:maj
.	.	.	.	.	.	2BM	.	synthesizer	.	122.269	B:maj
=65	=65	=65	=65	=65	=65	=65	=65	=65	=65	=65	=65
1r	.	1r	.	1r	.	1C#m	.	synthesizer	.	123.237	C#:min
=66	=66	=66	=66	=66	=66	=66	=66	=66	=66	=66	=66
1r	.	1r	.	1r	.	2AM	.	synthesizer	.	125.174	A:maj
.	.	.	.	.	.	2BM	.	synthesizer	.	126.142	B:maj
=67	=67	=67	=67	=67	=67	=67	=67	=67	=67	=67	=67
1r	.	1r	.	1r	.	1C#m	newline	synthesizer	.	127.111	C#:min(b13)
=68	=68	=68	=68	=68	=68	=68	=68	=68	=68	=68	=68
1r	.	1r	.	1r	.	1C#m	.	synthesizer	.	129.043	C#:min(b13)
=69	=69	=69	=69	=69	=69	=69	=69	=69	=69	=69	=69
1r	.	1r	.	1r	.	1C#m	.	synthesizer	.	130.975	C#:min(b13)
=70	=70	=70	=70	=70	=70	=70	=70	=70	=70	=70	=70
1r	.	1r	.	1r	.	1C#m	.	synthesizer	.	132.906	C#:min(b13)
=71	=71	=71	=71	=71	=71	=71	=71	=71	=71	=71	=71
1r	.	1r	.	1r	.	1C#m	newline	synthesizer	.	134.838	C#:min(b13)
=72	=72	=72	=72	=72	=72	=72	=72	=72	=72	=72	=72
1r	.	1r	.	1r	.	1C#m	.	synthesizer	.	136.786	C#:min(b13)
=73	=73	=73	=73	=73	=73	=73	=73	=73	=73	=73	=73
1r	.	1r	.	1r	.	1C#m	.	synthesizer	.	138.735	C#:min(b13)
=74	=74	=74	=74	=74	=74	=74	=74	=74	=74	=74	=74
2r	.	1r	.	1r	.	2AM	.	synthesizer	.	140.683	A:maj
8r	.	.	.	.	.	2BM	.	synthesizer	.	141.657	B:maj
8g#	Who's	.	.	.	.	.	.	.	.	.	.
8f#	wa-	.	.	.	.	.	.	.	.	.	.
8e	-tching	.	.	.	.	.	.	.	.	.	.
=75	=75	=75	=75	=75	=75	=75	=75	=75	=75	=75	=75
*>Letter>E	*>Letter>E	*>Letter>E	*>Letter>E	*>Letter>E	*>Letter>E	*>Letter>E	*>Letter>E	*>Letter>E	*>Letter>E	*>Letter>E	*>Letter>E
*>Label>Bridge	*>Label>Bridge	*>Label>Bridge	*>Label>Bridge	*>Label>Bridge	*>Label>Bridge	*>Label>Bridge	*>Label>Bridge	*>Label>Bridge	*>Label>Bridge	*>Label>Bridge	*>Label>Bridge
8e	me?	1r	.	1r	.	1C#m	newline	voice	C	142.631	C#:min
8r	.	.	.	.	.	.	.	.	.	.	.
16r	.	.	.	.	.	.	.	.	.	.	.
16B	I	.	.	.	.	.	.	.	.	.	.
8a	don't	.	.	.	.	.	.	.	.	.	.
16a	know	.	.	.	.	.	.	.	.	.	.
16e	a-	.	.	.	.	.	.	.	.	.	.
[8B	-ny-	.	.	.	.	.	.	.	.	.	.
8.B]	-more!	.	.	.	.	.	.	.	.	.	.
16r	.	.	.	.	.	.	.	.	.	.	.
=76	=76	=76	=76	=76	=76	=76	=76	=76	=76	=76	=76
12r	.	2r	.	2r	.	1C#m	.	voice	.	144.556	C#:min(11)
12e	Are	.	.	.	.	.	.	.	.	.	.
12f#	the	.	.	.	.	.	.	.	.	.	.
4g#	neigh-	.	.	.	.	.	.	.	.	.	.
12f#	-bors	4B 4b	Who's	4BBB 4BB	Who's	.	.	.	.	.	.
12e	wa-	.	.	.	.	.	.	.	.	.	.
12B	-tching	.	.	.	.	.	.	.	.	.	.
8B	me?	8A 8a	wa-	8AAA 8AA	wa-	.	.	.	.	.	.
8r	.	8G# 8g#	-tching?	8GGG# 8GG#	-tching?	.	.	.	.	.	.
=77	=77	=77	=77	=77	=77	=77	=77	=77	=77	=77	=77
2r	.	1r	.	1r	.	1C#m	.	voice	.	146.481	C#:min
12r	.	.	.	.	.	.	.	.	.	.	.
12f#	Well,	.	.	.	.	.	.	.	.	.	.
12g#	is	.	.	.	.	.	.	.	.	.	.
12a	the	.	.	.	.	.	.	.	.	.	.
6b	mail-	.	.	.	.	.	.	.	.	.	.
=78	=78	=78	=78	=78	=78	=78	=78	=78	=78	=78	=78
4f#	-man	4r	.	4r	.	1AM	.	voice	.	148.407	A:maj
12c#	wa-	8G# 8g#	Tell	8GGG# 8GG#	Tell	.	.	.	.	.	.
12B	-tching	.	.	.	.	.	.	.	.	.	.
.	.	8A 8a	me,	8AAA 8AA	me,	.	.	.	.	.	.
12G#	me?	.	.	.	.	.	.	.	.	.	.
2r	.	4B 4b	who's	4BBB 4BB	who's	.	.	.	.	.	.
.	.	8A 8a	wa-	8AAA 8AA	wa-	.	.	.	.	.	.
.	.	8G# 8g#	-tching?	8GGG# 8GG#	-tching?	.	.	.	.	.	.
=79	=79	=79	=79	=79	=79	=79	=79	=79	=79	=79	=79
16r	.	1r	.	1r	.	1C#m	newline	voice	.	150.332	C#:min
16g#	And	.	.	.	.	.	.	.	.	.	.
16g#	I	.	.	.	.	.	.	.	.	.	.
[16g#	don't	.	.	.	.	.	.	.	.	.	.
8g#]	_	.	.	.	.	.	.	.	.	.	.
8g#	feel	.	.	.	.	.	.	.	.	.	.
8g#	safe	.	.	.	.	.	.	.	.	.	.
16e	a-	.	.	.	.	.	.	.	.	.	.
16e	-ny-	.	.	.	.	.	.	.	.	.	.
4B	-more!	.	.	.	.	.	.	.	.	.	.
=80	=80	=80	=80	=80	=80	=80	=80	=80	=80	=80	=80
8r	.	1r	.	1r	.	1AMM	.	voice	.	152.268	A:maj7
8g	Oh,	.	.	.	.	.	.	.	.	.	.
16f#	what	.	.	.	.	.	.	.	.	.	.
8f#	a	.	.	.	.	.	.	.	.	.	.
[16f#	mess!	.	.	.	.	.	.	.	.	.	.
4f#]	_	.	.	.	.	.	.	.	.	.	.
8r	.	.	.	.	.	.	.	.	.	.	.
8g#	I	.	.	.	.	.	.	.	.	.	.
=81	=81	=81	=81	=81	=81	=81	=81	=81	=81	=81	=81
16a	won-	1r	.	1r	.	1C#m	.	voice	.	154.204	C#:min
16a	-der	.	.	.	.	.	.	.	.	.	.
8e	who's	.	.	.	.	.	.	.	.	.	.
12f#	wa-	.	.	.	.	.	.	.	.	.	.
12f#	-tching	.	.	.	.	.	.	.	.	.	.
12g	me	.	.	.	.	.	.	.	.	.	.
4g	now?	.	.	.	.	.	.	.	.	.	.
4a	WHO!	.	.	.	.	.	.	.	.	.	.
=82	=82	=82	=82	=82	=82	=82	=82	=82	=82	=82	=82
8r	.	1r	.	1r	.	2AM	.	voice	.	156.14	A:maj
8f#	The	.	.	.	.	.	.	.	.	.	.
16f#	I-	.	.	.	.	.	.	.	.	.	.
8f#	-R-	.	.	.	.	.	.	.	.	.	.
16ee	-S	.	.	.	.	.	.	.	.	.	.
8ff#	??	.	.	.	.	2BM	.	voice	.	157.108	B:maj
8r	.	.	.	.	.	.	.	.	.	.	.
4r	.	.	.	.	.	.	.	.	.	.	.
=83	=83	=83	=83	=83	=83	=83	=83	=83	=83	=83	=83
*>Letter>B	*>Letter>B	*>Letter>B	*>Letter>B	*>Letter>B	*>Letter>B	*>Letter>B	*>Letter>B	*>Letter>B	*>Letter>B	*>Letter>B	*>Letter>B
*>Label>Chorus	*>Label>Chorus	*>Label>Chorus	*>Label>Chorus	*>Label>Chorus	*>Label>Chorus	*>Label>Chorus	*>Label>Chorus	*>Label>Chorus	*>Label>Chorus	*>Label>Chorus	*>Label>Chorus
8r	.	1r	.	1r	.	1C#m	newline	voice	.	158.076	C#:min
8c#	I	.	.	.	.	.	.	.	.	.	.
8e	al-	.	.	.	.	.	.	.	.	.	.
8e	-ways	.	.	.	.	.	.	.	.	.	.
4f#	feel	.	.	.	.	.	.	.	.	.	.
4c#	like	.	.	.	.	.	.	.	.	.	.
=84	=84	=84	=84	=84	=84	=84	=84	=84	=84	=84	=84
8r	.	1r	.	1r	.	2AM	.	voice	.	160.012	A:maj
8c#	some-	.	.	.	.	.	.	.	.	.	.
8e	-bo-	.	.	.	.	.	.	.	.	.	.
8e	-dy's	.	.	.	.	.	.	.	.	.	.
4b	wa-	.	.	.	.	2BM	.	voice	.	160.981	B:maj
8a	-tching	.	.	.	.	.	.	.	.	.	.
8a	me!	.	.	.	.	.	.	.	C	.	.
=85	=85	=85	=85	=85	=85	=85	=85	=85	=85	=85	=85
4.g#	_	1r	.	1r	.	1C#m	.	voice	.	161.949	C#:min
8r	.	.	.	.	.	.	.	.	.	.	.
8r	.	.	.	.	.	.	.	.	.	.	.
16g	And	.	.	.	.	.	.	.	.	.	.
16f#	I	.	.	.	.	.	.	.	.	.	.
8f#	have	.	.	.	.	.	.	.	.	.	.
8f#	no	.	.	.	.	.	.	.	.	.	.
=86	=86	=86	=86	=86	=86	=86	=86	=86	=86	=86	=86
8f#	pri-	1r	.	1r	.	2AM	.	voice	.	163.885	A:maj
8c#	-va-	.	.	.	.	.	.	.	.	.	.
4c#	-cy,	.	.	.	.	.	.	.	C	.	.
8r	.	.	.	.	.	2BM	.	voice	.	164.854	B:maj
8c#	whoa-	.	.	.	.	.	.	.	.	.	.
8e	-oh-	.	.	.	.	.	.	.	.	.	.
8c#	-oh!	.	.	.	.	.	.	.	.	.	.
=87	=87	=87	=87	=87	=87	=87	=87	=87	=87	=87	=87
8r	.	1r	.	1r	.	1C#m	newline	voice	.	165.822	C#:min
8c#	I	.	.	.	.	.	.	.	.	.	.
8e	al-	.	.	.	.	.	.	.	.	.	.
8e	-ways	.	.	.	.	.	.	.	.	.	.
4f#	feel	.	.	.	.	.	.	.	.	.	.
4c#	like	.	.	.	.	.	.	.	.	.	.
=88	=88	=88	=88	=88	=88	=88	=88	=88	=88	=88	=88
8r	.	1r	.	1r	.	2AM	.	voice	.	167.744	A:maj
8c#	some-	.	.	.	.	.	.	.	.	.	.
8e	-bo-	.	.	.	.	.	.	.	.	.	.
8e	-dy's	.	.	.	.	.	.	.	.	.	.
4b	wa-	.	.	.	.	2BM	.	voice	.	168.706	B:maj
8a	-tching	.	.	.	.	.	.	.	.	.	.
8a	me!	.	.	.	.	.	.	.	C	.	.
=89	=89	=89	=89	=89	=89	=89	=89	=89	=89	=89	=89
4.g#	_	1r	.	1r	.	1C#m	.	voice	.	169.667	C#:min
8r	.	.	.	.	.	.	.	.	.	.	.
8r	.	.	.	.	.	.	.	.	.	.	.
16g	Tell	.	.	.	.	.	.	.	.	.	.
16g	me,	.	.	.	.	.	.	.	.	.	.
8f#	is	.	.	.	.	.	.	.	.	.	.
8f#	it	.	.	.	.	.	.	.	.	.	.
=90	=90	=90	=90	=90	=90	=90	=90	=90	=90	=90	=90
8f#	just	1r	.	1r	.	2AM	.	voice	.	171.59	A:maj
8c#	a	.	.	.	.	.	.	.	.	.	.
4c#	dream?	.	.	.	.	.	.	.	C	.	.
2r	.	.	.	.	.	2BM	.	voice	.	172.551	B:maj
=91	=91	=91	=91	=91	=91	=91	=91	=91	=91	=91	=91
8r	.	1r	.	1r	.	1C#m	newline	voice	.	173.513	C#:min
8c#	I	.	.	.	.	.	.	.	.	.	.
8e	al-	.	.	.	.	.	.	.	.	.	.
8e	-ways	.	.	.	.	.	.	.	.	.	.
4f#	feel	.	.	.	.	.	.	.	.	.	.
4c#	like	.	.	.	.	.	.	.	.	.	.
=92	=92	=92	=92	=92	=92	=92	=92	=92	=92	=92	=92
8r	.	1r	.	1r	.	2AM	.	voice	.	175.45	A:maj
8c#	some-	.	.	.	.	.	.	.	.	.	.
8e	-bo-	.	.	.	.	.	.	.	.	.	.
8e	-dy's	.	.	.	.	.	.	.	.	.	.
4b	wa-	.	.	.	.	2BM	.	voice	.	176.418	B:maj
8a	-tching	.	.	.	.	.	.	.	.	.	.
8a	me!	.	.	.	.	.	.	.	C	.	.
=93	=93	=93	=93	=93	=93	=93	=93	=93	=93	=93	=93
4.g#	_	2r	.	1r	.	1C#m	.	voice	.	177.387	C#:min
8r	.	.	.	.	.	.	.	.	.	.	.
8r	.	6r	.	.	.	.	.	.	.	.	.
16g	And	.	.	.	.	.	.	.	.	.	.
.	.	6ff#	_	.	.	.	.	.	.	.	.
16f#	I	.	.	.	.	.	.	.	.	.	.
8f#	have	.	.	.	.	.	.	.	.	.	.
.	.	6ee	_	.	.	.	.	.	.	.	.
8f#	no	.	.	.	.	.	.	.	.	.	.
=94	=94	=94	=94	=94	=94	=94	=94	=94	=94	=94	=94
8f#	pri-	4cc#	_	1r	.	2AM	.	voice	.	179.324	A:maj
8c#	-va-	.	.	.	.	.	.	.	.	.	.
4c#	-cy,	4r	.	.	.	.	.	.	c	.	.
8B	whoa-	2r	.	.	.	2BM	.	voice	.	180.292	B:maj
8c#	-oh-	.	.	.	.	.	.	.	.	.	.
8e	-oh-	.	.	.	.	.	.	.	.	.	.
8c#	-oh!	.	.	.	.	.	.	.	.	.	.
=95	=95	=95	=95	=95	=95	=95	=95	=95	=95	=95	=95
8r	.	1r	.	1r	.	1C#m	newline	voice	.	181.261	C#:min
8c#	I	.	.	.	.	.	.	.	.	.	.
8e	al-	.	.	.	.	.	.	.	.	.	.
8e	-ways	.	.	.	.	.	.	.	.	.	.
4f#	feel	.	.	.	.	.	.	.	.	.	.
4c#	like	.	.	.	.	.	.	.	.	.	.
=96	=96	=96	=96	=96	=96	=96	=96	=96	=96	=96	=96
8r	.	1r	.	1r	.	2AM	.	voice	.	183.19	A:maj
8c#	some-	.	.	.	.	.	.	.	.	.	.
8e	-bo-	.	.	.	.	.	.	.	.	.	.
8e	-dy's	.	.	.	.	.	.	.	.	.	.
4b	wa-	.	.	.	.	2BM	.	voice	.	184.154	B:maj
8a	-tching	.	.	.	.	.	.	.	.	.	.
8a	me!	.	.	.	.	.	.	.	C	.	.
=97	=97	=97	=97	=97	=97	=97	=97	=97	=97	=97	=97
4.g#	_	1r	.	1r	.	1C#m	.	voice	.	185.119	C#:min
8r	.	.	.	.	.	.	.	.	.	.	.
8r	.	.	.	.	.	.	.	.	.	.	.
8g#	Who's	.	.	.	.	.	.	.	.	.	.
8g	pla-	.	.	.	.	.	.	.	.	.	.
8f#	-ying	.	.	.	.	.	.	.	.	.	.
=98	=98	=98	=98	=98	=98	=98	=98	=98	=98	=98	=98
8f#	tricks	2r	.	1r	.	2AM	.	voice	.	187.048	A:maj
8f#	on	.	.	.	.	.	.	.	.	.	.
4g#	me?	.	.	.	.	.	.	.	C	.	.
2r	.	8r	.	.	.	2BM	.	voice	.	188.013	B:maj
.	.	8e 8g#	Who's	.	.	.	.	.	.	.	.
.	.	8d# 8f#	wa-	.	.	.	.	.	.	.	.
.	.	8c# 8e	-tching	.	.	.	.	.	.	.	.
=99	=99	=99	=99	=99	=99	=99	=99	=99	=99	=99	=99
*>Letter>B	*>Letter>B	*>Letter>B	*>Letter>B	*>Letter>B	*>Letter>B	*>Letter>B	*>Letter>B	*>Letter>B	*>Letter>B	*>Letter>B	*>Letter>B
*>Label>Chorus	*>Label>Chorus	*>Label>Chorus	*>Label>Chorus	*>Label>Chorus	*>Label>Chorus	*>Label>Chorus	*>Label>Chorus	*>Label>Chorus	*>Label>Chorus	*>Label>Chorus	*>Label>Chorus
8r	.	8c# 8e	me?	1r	.	1C#m	newline	voice	.	188.977	C#:min
8c#	I	8r	.	.	.	.	.	.	.	.	.
8e	al-	2.r	.	.	.	.	.	.	.	.	.
8e	-ways	.	.	.	.	.	.	.	.	.	.
4f#	feel	.	.	.	.	.	.	.	.	.	.
4c#	like	.	.	.	.	.	.	.	.	.	.
=100	=100	=100	=100	=100	=100	=100	=100	=100	=100	=100	=100
8r	.	1r	.	1r	.	2AM	.	voice	.	190.909	A:maj
8c#	some-	.	.	.	.	.	.	.	.	.	.
8e	-bo-	.	.	.	.	.	.	.	.	.	.
8e	-dy's	.	.	.	.	.	.	.	.	.	.
4b	wa-	.	.	.	.	2BM	.	voice	.	191.875	B:maj
8a	-tching	.	.	.	.	.	.	.	.	.	.
8a	me!	.	.	.	.	.	.	.	C	.	.
=101	=101	=101	=101	=101	=101	=101	=101	=101	=101	=101	=101
4.g#	_	2r	.	1r	.	1C#m	.	voice	.	192.841	C#:min
8r	.	.	.	.	.	.	.	.	.	.	.
2r	.	4r	.	.	.	.	.	.	.	.	.
.	.	8r	.	.	.	.	.	.	.	.	.
.	.	[8cc#	Ooh	.	.	.	.	.	.	.	.
=102	=102	=102	=102	=102	=102	=102	=102	=102	=102	=102	=102
2r	.	16cc#]	_	1r	.	2AM	.	voice	.	194.772	A:maj
.	.	16b	_	.	.	.	.	.	.	.	.
.	.	8g#	_	.	.	.	.	.	.	.	.
.	.	8f#	_	.	.	.	.	.	.	.	.
.	.	[8e	_	.	.	.	.	.	.	.	.
8r	.	4e]	.	.	.	2BM	.	voice	.	195.738	B:maj
8c#	Whoa-	.	.	.	.	.	.	.	.	.	.
8e	-oh-	4r	.	.	.	.	.	.	.	.	.
8c#	-oh!	.	.	.	.	.	.	.	.	.	.
=103	=103	=103	=103	=103	=103	=103	=103	=103	=103	=103	=103
8r	.	1r	.	1r	.	1C#m	newline	voice	.	196.704	C#:min
8c#	I	.	.	.	.	.	.	.	.	.	.
8e	al-	.	.	.	.	.	.	.	.	.	.
8e	-ways	.	.	.	.	.	.	.	.	.	.
4f#	feel	.	.	.	.	.	.	.	.	.	.
4c#	like	.	.	.	.	.	.	.	.	.	.
=104	=104	=104	=104	=104	=104	=104	=104	=104	=104	=104	=104
8r	.	1r	.	1r	.	2AM	.	voice	.	198.653	A:maj
8c#	some-	.	.	.	.	.	.	.	.	.	.
8e	-bo-	.	.	.	.	.	.	.	.	.	.
8e	-dy's	.	.	.	.	.	.	.	.	.	.
4b	wa-	.	.	.	.	2BM	.	voice	.	199.628	B:maj
8a	-tching	.	.	.	.	.	.	.	.	.	.
8a	me!	.	.	.	.	.	.	.	C	.	.
=105	=105	=105	=105	=105	=105	=105	=105	=105	=105	=105	=105
4.g#	_	2r	.	1r	.	1C#m	.	voice	.	200.603	C#:min
8r	.	.	.	.	.	.	.	.	.	.	.
8r	.	6r	.	.	.	.	.	.	.	.	.
8g#	Tell	.	.	.	.	.	.	.	.	.	.
.	.	6ff#	_	.	.	.	.	.	.	.	.
8f#	me,	.	.	.	.	.	.	.	.	.	.
.	.	6ee	_	.	.	.	.	.	.	.	.
8e	who	.	.	.	.	.	.	.	.	.	.
=106	=106	=106	=106	=106	=106	=106	=106	=106	=106	=106	=106
8f#	can	4cc#	_	1r	.	2AM	.	voice	.	202.552	A:maj
8c#	it	.	.	.	.	.	.	.	.	.	.
4c#	be!	4r	.	.	.	.	.	.	C	.	.
2r	.	8r	.	.	.	2BM	.	voice	.	203.527	B:maj
.	.	8e 8g#	_	.	.	.	.	.	.	.	.
.	.	8d# 8f#	_	.	.	.	.	.	.	.	.
.	.	8c# 8e	_	.	.	.	.	.	.	.	.
=107	=107	=107	=107	=107	=107	=107	=107	=107	=107	=107	=107
8r	.	8c# 8e	_	1r	.	1C#m	newline	voice	.	204.502	C#:min
8c#	I	8r	.	.	.	.	.	.	.	.	.
8e	al-	2.r	.	.	.	.	.	.	.	.	.
8e	-ways	.	.	.	.	.	.	.	.	.	.
4f#	feel	.	.	.	.	.	.	.	.	.	.
4c#	like	.	.	.	.	.	.	.	.	.	.
=108	=108	=108	=108	=108	=108	=108	=108	=108	=108	=108	=108
8r	.	1r	.	1r	.	2AM	.	voice	.	206.43	A:maj
8c#	some-	.	.	.	.	.	.	.	.	.	.
8e	-bo-	.	.	.	.	.	.	.	.	.	.
8e	-dy's	.	.	.	.	.	.	.	.	.	.
4b	wa-	.	.	.	.	2BM	.	voice	.	207.394	B:maj
8a	-tching	.	.	.	.	.	.	.	.	.	.
8a	me!	.	.	.	.	.	.	.	C	.	.
=109	=109	=109	=109	=109	=109	=109	=109	=109	=109	=109	=109
4.g#	_	2r	.	1r	.	1C#m	.	voice	.	208.358	C#:min
8r	.	.	.	.	.	.	.	.	.	.	.
2r	.	4r	.	.	.	.	.	.	.	.	.
.	.	8r	.	.	.	.	.	.	.	.	.
.	.	8f#	Ooh	.	.	.	.	.	.	.	.
=110	=110	=110	=110	=110	=110	=110	=110	=110	=110	=110	=110
2r	.	16e	_	1r	.	2AM	.	voice	.	210.286	A:maj
.	.	8c#	_	.	.	.	.	.	.	.	.
.	.	[16c#	_	.	.	.	.	.	.	.	.
.	.	4c#]	.	.	.	.	.	.	.	.	.
8B	Whoa-	8r	.	.	.	2BM	.	voice	.	211.25	B:maj
8c#	-oh-	8A	Ah!	.	.	.	.	.	.	.	.
8e	-oh-	8r	.	.	.	.	.	.	.	.	.
8c#	-oh!	8ee	Ooh!	.	.	.	.	.	.	.	.
=111	=111	=111	=111	=111	=111	=111	=111	=111	=111	=111	=111
*>Label>>Fadeout	*>Label>>Fadeout	*>Label>>Fadeout	*>Label>>Fadeout	*>Label>>Fadeout	*>Label>>Fadeout	*>Label>>Fadeout	*>Label>>Fadeout	*>Label>>Fadeout	*>Label>>Fadeout	*>Label>>Fadeout	*>Label>>Fadeout
8r	.	1r	.	1r	.	1C#m	newline	voice	.	212.214	C#:min
8c#	I	.	.	.	.	.	.	.	.	.	.
8e	al-	.	.	.	.	.	.	.	.	.	.
8e	-ways	.	.	.	.	.	.	.	.	.	.
4f#	feel	.	.	.	.	.	.	.	.	.	.
4c#	like	.	.	.	.	.	.	.	.	.	.
=112	=112	=112	=112	=112	=112	=112	=112	=112	=112	=112	=112
8r	.	1r	.	1r	.	2AM	.	voice	.	214.151	A:maj
8c#	some-	.	.	.	.	.	.	.	.	.	.
8e	-bo-	.	.	.	.	.	.	.	.	.	.
8e	-dy's	.	.	.	.	.	.	.	.	.	.
4b	wa-	.	.	.	.	2BM	.	voice	.	215.119	B:maj
8a	-tching	.	.	.	.	.	.	.	.	.	.
8a	me!	.	.	.	.	.	.	.	C	.	.
=113	=113	=113	=113	=113	=113	=113	=113	=113	=113	=113	=113
4.g#	_	1r	.	1r	.	1C#m	.	voice	.	216.087	C#:min
8r	.	.	.	.	.	.	.	.	.	.	.
8r	.	.	.	.	.	.	.	.	.	.	.
8g#	Who's	.	.	.	.	.	.	.	.	.	.
8g	pla-	.	.	.	.	.	.	.	.	.	.
8f#	-ying	.	.	.	.	.	.	.	.	.	.
=114	=114	=114	=114	=114	=114	=114	=114	=114	=114	=114	=114
8f#	tricks	2r	.	1r	.	2AM	.	voice	.	218.024	A:maj
8f#	on	.	.	.	.	.	.	.	.	.	.
4g#	me?	.	.	.	.	.	.	.	C	.	.
2r	.	8r	.	.	.	2BM	.	voice	.	218.992	B:maj
.	.	8e 8g#	Who's	.	.	.	.	.	.	.	.
.	.	8d# 8f#	wa-	.	.	.	.	.	.	.	.
.	.	8c# 8e	-tching	.	.	.	.	.	.	.	.
=115	=115	=115	=115	=115	=115	=115	=115	=115	=115	=115	=115
8r	.	8c# 8e	me?	1r	.	1C#m	newline	voice	.	219.961	C#:min
8c#	I	8r	.	.	.	.	.	.	.	.	.
8e	al-	2.r	.	.	.	.	.	.	.	.	.
8e	-ways	.	.	.	.	.	.	.	.	.	.
4f#	feel	.	.	.	.	.	.	.	.	.	.
4c#	like	.	.	.	.	.	.	.	.	.	.
=116	=116	=116	=116	=116	=116	=116	=116	=116	=116	=116	=116
8r	.	1r	.	1r	.	2AM	.	voice	.	221.892	A:maj
8c#	some-	.	.	.	.	.	.	.	.	.	.
8e	-bo-	.	.	.	.	.	.	.	.	.	.
8e	-dy's	.	.	.	.	.	.	.	.	.	.
4b	wa-	.	.	.	.	2BM	.	voice	.	222.858	B:maj
8a	-tching	.	.	.	.	.	.	.	.	.	.
8a	me!	.	.	.	.	.	.	.	C	.	.
=117	=117	=117	=117	=117	=117	=117	=117	=117	=117	=117	=117
4.g#	_	1r	.	1r	.	1C#m	.	voice	.	223.824	C#:min
8r	.	.	.	.	.	.	.	.	.	.	.
8r	.	.	.	.	.	.	.	.	.	.	.
16g	Can	.	.	.	.	.	.	.	.	.	.
16g	I	.	.	.	.	.	.	.	.	.	.
8f#	have	.	.	.	.	.	.	.	.	.	.
8f#	my	.	.	.	.	.	.	.	.	.	.
=118	=118	=118	=118	=118	=118	=118	=118	=118	=118	=118	=118
6f#	pri-	2r	.	1r	.	2AM	.	voice	.	225.756	A:maj
6c#	-va-	.	.	.	.	.	.	.	.	.	.
[6c#	-cy?	.	.	.	.	.	.	.	C	.	.
8c#]	_	8r	.	.	.	2BM	.	voice	.	226.722	B:maj
[8B	_	8c#	Whoa-	.	.	.	.	.	.	.	.
4B]	_	8e	-oh-	.	.	.	.	.	.	.	.
.	.	8c#	-oh!	.	.	.	.	.	.	.	.
=119	=119	=119	=119	=119	=119	=119	=119	=119	=119	=119	=119
8r	.	1r	.	1r	.	1C#m	newline	voice	.	227.687	C#:min
8c#	I	.	.	.	.	.	.	.	.	.	.
8e	al-	.	.	.	.	.	.	.	.	.	.
8e	-ways	.	.	.	.	.	.	.	.	.	.
4f#	feel	.	.	.	.	.	.	.	.	.	.
4c#	like	.	.	.	.	.	.	.	.	.	.
=120	=120	=120	=120	=120	=120	=120	=120	=120	=120	=120	=120
8r	.	1r	.	1r	.	2AM	.	voice	.	229.628	A:maj
8c#	some-	.	.	.	.	.	.	.	.	.	.
8e	-bo-	.	.	.	.	.	.	.	.	.	.
8e	-dy's	.	.	.	.	.	.	.	.	.	.
4b	wa-	.	.	.	.	2BM	.	voice	.	230.599	B:maj
8a	-tching	.	.	.	.	.	.	.	.	.	.
8a	me!	.	.	.	.	.	.	.	C	.	.
=121	=121	=121	=121	=121	=121	=121	=121	=121	=121	=121	=121
4.g#	_	1r	.	1r	.	1C#m	.	voice	.	231.569	C#:min
8r	.	.	.	.	.	.	.	.	.	.	.
8r	.	.	.	.	.	.	.	.	.	.	.
8g#	Who's	.	.	.	.	.	.	.	.	.	.
8f#	pla-	.	.	.	.	.	.	.	.	.	.
8f#	-ying	.	.	.	.	.	.	.	.	.	.
=122	=122	=122	=122	=122	=122	=122	=122	=122	=122	=122	=122
8f#	tricks	1r	.	1r	.	2AM	.	voice	.	233.51	A:maj
8c#	on	.	.	.	.	.	.	.	.	.	.
4c#	me?	.	.	.	.	.	.	.	C	.	.
2r	.	.	.	.	.	2BM	.	voice	.	234.48	B:maj
r;	.	r;	.	r;	.	1r;	.	r	.	235.45	N.C.
r;	.	r;	.	r;	.	1r;	.	r	.	241.659	N.C.
*-	*-	*-	*-	*-	*-	*-	*-	*-	*-	*-	*-
!!!BillboardChartDate: 1984/01/28, 1984/03/17
!!!BillboardPeak: 2, 2
!!!BillboardWeeksOnChart: 19, 19
!!!COC: Rockwell
!!!ENC: Nathaniel Condit-Schultz
!!!EST: Awating manual error checking and editing.
!!!OTL: Somebody's Watching Me
!!!RDF**chordsym: original McGill chord annotation + (implied pitch class set, with bass pitch in first position)
!!!RDF**harmony: **recip + pitch class of root + harmonic quality
!!!RDF**leadinstrument: original McGill primary instrumentation annotation
!!!RDF**phrase: newline = linebreak in original McGill transcription
!!!RDF**timestamp: McGill audio timestamp in seconds
!!!RDT: 2017/01/12/
!!!SampleActualRank: 73,  3
!!!SampleID#: 334, 882
!!!SampleTargetRank: 73,  4
